public/library/basescan-icon-dark.svg

<svg width="257" height="257" viewBox="0 0 257 257" fill="none" xmlns="http://www.w3.org/2000/svg">
<path d="M54.2049 122.679C54.2052 121.247 54.4876 119.83 55.0362 118.508C55.5847 117.186 56.3884 115.986 57.4012 114.977C58.4139 113.967 59.6158 113.167 60.9378 112.624C62.2598 112.081 63.6758 111.805 65.1047 111.812L83.1762 111.871C86.0576 111.871 88.8208 113.018 90.8582 115.059C92.8956 117.1 94.0402 119.868 94.0402 122.755V191.21C96.0746 190.605 98.6875 189.96 101.547 189.286C103.533 188.819 105.303 187.693 106.569 186.091C107.836 184.489 108.525 182.505 108.525 180.461V95.5452C108.525 92.6584 109.669 89.8899 111.707 87.8485C113.744 85.8071 116.507 84.6599 119.389 84.6593H137.496C140.378 84.6599 143.141 85.8071 145.178 87.8485C147.216 89.8899 148.36 92.6584 148.36 95.5452V174.355C148.36 174.355 152.894 172.518 157.31 170.65C158.95 169.955 160.35 168.792 161.335 167.305C162.32 165.818 162.845 164.074 162.847 162.289V68.3358C162.847 65.4496 163.991 62.6816 166.028 60.6406C168.065 58.5995 170.828 57.4526 173.709 57.4521H191.816C194.698 57.4521 197.461 58.5987 199.498 60.6398C201.536 62.6809 202.68 65.4493 202.68 68.3358V145.704C218.379 134.306 234.288 120.598 246.913 104.115C248.744 101.722 249.956 98.9127 250.44 95.9368C250.924 92.961 250.666 89.9113 249.687 87.0599C243.844 70.2153 234.554 54.7784 222.414 41.7369C210.273 28.6954 195.548 18.3367 179.182 11.3235C162.816 4.31037 145.168 0.797267 127.369 1.00903C109.57 1.2208 92.0104 5.15279 75.815 12.5533C59.6197 19.9539 45.1447 30.66 33.3166 43.9867C21.4884 57.3133 12.5675 72.9669 7.12481 89.9458C1.68207 106.925 -0.16266 124.855 1.70867 142.589C3.57999 160.323 9.12617 177.471 17.9923 192.934C19.5368 195.602 21.809 197.772 24.5421 199.191C27.2751 200.609 30.3556 201.217 33.4215 200.943C36.8465 200.642 41.1109 200.214 46.181 199.617C48.3881 199.366 50.4259 198.311 51.906 196.651C53.3861 194.992 54.2052 192.845 54.207 190.62V122.679" fill="white"/>
<path d="M54.2049 122.679C54.2052 121.247 54.4876 119.83 55.0362 118.508C55.5847 117.186 56.3884 115.986 57.4012 114.977C58.4139 113.967 59.6158 113.167 60.9378 112.624C62.2598 112.081 63.6758 111.805 65.1046 111.812L83.1762 111.871C86.0576 111.871 88.8208 113.018 90.8582 115.059C92.8956 117.1 94.0402 119.868 94.0402 122.755V191.21C96.0746 190.605 98.6875 189.96 101.547 189.286C103.533 188.819 105.303 187.693 106.569 186.091C107.836 184.489 108.525 182.505 108.525 180.461V95.5452C108.525 92.6584 109.669 89.8899 111.707 87.8485C113.744 85.8071 116.507 84.6599 119.389 84.6593H137.496C140.378 84.6599 143.141 85.8071 145.178 87.8485C147.216 89.8899 148.36 92.6584 148.36 95.5452V174.355C148.36 174.355 152.894 172.518 157.31 170.65C158.95 169.955 160.35 168.792 161.335 167.305C162.32 165.818 162.845 164.074 162.847 162.289V68.3358C162.847 65.4496 163.991 62.6816 166.028 60.6406C168.065 58.5995 170.828 57.4526 173.709 57.4521H191.816C194.698 57.4521 197.461 58.5987 199.498 60.6398C201.536 62.6809 202.68 65.4493 202.68 68.3358V145.704C218.379 134.306 234.288 120.598 246.913 104.115C248.744 101.722 249.956 98.9127 250.44 95.9368C250.924 92.961 250.666 89.9113 249.687 87.0599C243.844 70.2153 234.554 54.7784 222.414 41.7369C210.273 28.6954 195.548 18.3367 179.182 11.3235C162.816 4.31037 145.168 0.797267 127.369 1.00903C109.57 1.2208 92.0104 5.15279 75.815 12.5533C59.6197 19.9539 45.1447 30.66 33.3166 43.9867C21.4884 57.3133 12.5675 72.9669 7.12481 89.9458C1.68207 106.925 -0.16266 124.855 1.70867 142.589C3.57999 160.323 9.12617 177.471 17.9923 192.934C19.5368 195.602 21.809 197.772 24.5421 199.191C27.2751 200.609 30.3556 201.217 33.4215 200.943C36.8465 200.642 41.1109 200.214 46.181 199.617C48.3881 199.366 50.4259 198.311 51.906 196.651C53.3861 194.992 54.2052 192.845 54.207 190.62V122.679" stroke="white"/>
<path d="M53.8086 232.475C72.8951 246.386 95.451 254.736 118.981 256.601C142.51 258.466 166.096 253.773 187.128 243.041C208.161 232.31 225.82 215.959 238.151 195.797C250.483 175.634 257.006 152.447 256.999 128.801C256.999 125.851 256.863 122.932 256.667 120.029C209.923 189.872 123.615 222.523 53.8128 232.465" fill="#0052FF"/>
</svg>

<svg xmlns="http://www.w3.org/2000/svg" width="257" height="257" fill="none" viewBox="0 0 257 257"><path fill="#fff" d="M54.205 122.679a10.89 10.89 0 0 1 3.196-7.702 10.84 10.84 0 0 1 7.704-3.165l18.071.059c2.882 0 5.645 1.147 7.682 3.188a10.9 10.9 0 0 1 3.182 7.696v68.455c2.035-.605 4.647-1.25 7.507-1.924a9.04 9.04 0 0 0 5.022-3.195 9.08 9.08 0 0 0 1.956-5.63V95.545c0-2.887 1.144-5.655 3.182-7.696a10.86 10.86 0 0 1 7.682-3.19h18.107c2.882 0 5.645 1.148 7.682 3.19a10.9 10.9 0 0 1 3.182 7.696v78.81s4.534-1.837 8.95-3.705a9.08 9.08 0 0 0 4.025-3.345 9.1 9.1 0 0 0 1.512-5.016V68.336c0-2.886 1.144-5.654 3.181-7.695a10.85 10.85 0 0 1 7.681-3.189h18.107c2.882 0 5.645 1.147 7.682 3.188a10.9 10.9 0 0 1 3.182 7.696v77.368c15.699-11.398 31.608-25.106 44.233-41.589a18.29 18.29 0 0 0 2.774-17.055 128.2 128.2 0 0 0-27.273-45.323 127.9 127.9 0 0 0-43.232-30.414 127.69 127.69 0 0 0-103.367 1.23 127.9 127.9 0 0 0-42.498 31.434A128.2 128.2 0 0 0 7.125 89.946a128.3 128.3 0 0 0-5.416 52.643 128.3 128.3 0 0 0 16.283 50.345 16.157 16.157 0 0 0 15.43 8.009c3.425-.301 7.689-.729 12.759-1.326a9.04 9.04 0 0 0 5.725-2.966 9.07 9.07 0 0 0 2.301-6.031v-67.941"/><path stroke="#fff" d="M54.205 122.679a10.89 10.89 0 0 1 3.196-7.702 10.84 10.84 0 0 1 7.704-3.165l18.071.059c2.882 0 5.645 1.147 7.682 3.188a10.9 10.9 0 0 1 3.182 7.696v68.455c2.035-.605 4.647-1.25 7.507-1.924a9.04 9.04 0 0 0 5.022-3.195 9.08 9.08 0 0 0 1.956-5.63V95.545c0-2.887 1.144-5.655 3.182-7.696a10.86 10.86 0 0 1 7.682-3.19h18.107c2.882 0 5.645 1.148 7.682 3.19a10.9 10.9 0 0 1 3.182 7.696v78.81s4.534-1.837 8.95-3.705a9.08 9.08 0 0 0 4.025-3.345 9.1 9.1 0 0 0 1.512-5.016V68.336c0-2.886 1.144-5.654 3.181-7.695a10.85 10.85 0 0 1 7.681-3.189h18.107c2.882 0 5.645 1.147 7.682 3.188a10.9 10.9 0 0 1 3.182 7.696v77.368c15.699-11.398 31.608-25.106 44.233-41.589a18.29 18.29 0 0 0 2.774-17.055 128.2 128.2 0 0 0-27.273-45.323 127.9 127.9 0 0 0-43.232-30.414 127.69 127.69 0 0 0-103.367 1.23 127.9 127.9 0 0 0-42.498 31.434A128.2 128.2 0 0 0 7.125 89.946a128.3 128.3 0 0 0-5.416 52.643 128.3 128.3 0 0 0 16.283 50.345 16.157 16.157 0 0 0 15.43 8.009c3.425-.301 7.689-.729 12.759-1.326a9.04 9.04 0 0 0 5.725-2.966 9.07 9.07 0 0 0 2.301-6.031v-67.941"/><path fill="#0052ff" d="M53.809 232.475a127.8 127.8 0 0 0 65.172 24.126 127.7 127.7 0 0 0 68.147-13.56 128 128 0 0 0 51.023-47.244 128.33 128.33 0 0 0 18.848-66.996c0-2.95-.136-5.869-.332-8.772-46.744 69.843-133.052 102.494-202.854 112.436"/></svg>
